findly-builder/apps/searchassist/src/assets/icons/resultranking/pined.svg

<svg width="12" height="12" viewBox="0 0 12 12" fill="none" xmlns="http://www.w3.org/2000/svg">
<path d="M7.40475 5.97807e-05C7.27095 0.00216377 7.14335 0.0567915 7.04948 0.152153C6.95561 0.247515 6.903 0.375963 6.903 0.509775V2.33758L5.1628 4.07778H2.31556C2.21477 4.07782 2.11626 4.10774 2.03247 4.16375C1.94867 4.21976 1.88337 4.29936 1.8448 4.39248C1.80623 4.4856 1.79613 4.58806 1.81578 4.68691C1.83542 4.78577 1.88394 4.87658 1.95518 4.94788L4.14337 7.13607L0.149276 11.1302C-0.0497586 11.3292 -0.0497588 11.6519 0.149276 11.8509C0.348311 12.05 0.67101 12.05 0.870045 11.8509L4.86414 7.85684L7.05233 10.045C7.12362 10.1163 7.21444 10.1648 7.31329 10.1844C7.41215 10.2041 7.51461 10.194 7.60773 10.1554C7.70085 10.1168 7.78045 10.0515 7.83646 9.96774C7.89247 9.88395 7.92239 9.78543 7.92243 9.68464V6.95687L9.67258 5.09721H11.4904C11.5912 5.09717 11.6897 5.06725 11.7735 5.01124C11.8573 4.95523 11.9226 4.87563 11.9612 4.78251C11.9998 4.68939 12.0099 4.58693 11.9902 4.48807C11.9706 4.38922 11.9221 4.2984 11.8508 4.22711L7.7731 0.14939C7.72483 0.1011 7.66735 0.0629979 7.60408 0.0373458C7.5408 0.0116936 7.47302 -0.000985793 7.40475 5.97807e-05ZM7.92243 1.74026L10.26 4.07778H9.45157C9.38211 4.07801 9.31343 4.09244 9.24975 4.12017C9.18606 4.1479 9.12872 4.18836 9.08123 4.23906L7.04237 6.40534C6.9533 6.49954 6.90346 6.62414 6.903 6.75378V8.45416L3.54605 5.09721H5.37385C5.50903 5.09718 5.63866 5.04347 5.73424 4.94788L7.7731 2.90902C7.86869 2.81344 7.9224 2.68381 7.92243 2.54863V1.74026Z" fill="#0D6EFD"/>
</svg>

<svg width="12" height="12" fill="none" xmlns="http://www.w3.org/2000/svg"><path d="M7.405 0a.51.51 0 0 0-.502.51v1.828l-1.74 1.74H2.316a.51.51 0 0 0-.36.87l2.187 2.188L.15 11.13a.51.51 0 1 0 .721.72l3.994-3.993 2.188 2.188a.509.509 0 0 0 .87-.36V6.957l1.75-1.86h1.818a.51.51 0 0 0 .36-.87L7.774.15A.51.51 0 0 0 7.405 0Zm.517 1.74 2.338 2.338h-.808a.51.51 0 0 0-.37.161l-2.04 2.166a.51.51 0 0 0-.139.349v1.7L3.546 5.097h1.828a.51.51 0 0 0 .36-.15l2.04-2.038a.51.51 0 0 0 .148-.36V1.74Z" fill="#0D6EFD"/></svg>
